src/icons/cloudwatch.svg

<?xml version="1.0" encoding="UTF-8"?>
<svg xmlns="http://www.w3.org/2000/svg" xmlns:xlink="http://www.w3.org/1999/xlink" width="28.121" height="32" viewBox="0 0 28.121 32" version="1.1">
<g id="surface1">
<path style=" stroke:none;fill-rule:nonzero;fill:rgb(71.764708%,79.215688%,61.56863%);fill-opacity:1;" d="M 13.707031 31.03125 L 27.425781 21.34375 L 13.71875 19.34375 L 0 21.359375 Z M 13.707031 31.03125 "/>
<path style=" stroke:none;fill-rule:nonzero;fill:rgb(29.803923%,38.431373%,17.254902%);fill-opacity:1;" d="M 2.738281 6.003906 L 2.738281 21.125 L 5.0625 21.816406 L 10.511719 13.46875 L 5.0625 5.109375 Z M 2.738281 6.003906 "/>
<path style=" stroke:none;fill-rule:nonzero;fill:rgb(45.882353%,61.176473%,24.705882%);fill-opacity:1;" d="M 13.261719 6.960938 L 13.261719 20.402344 L 5.070312 21.84375 L 5.070312 5.109375 Z M 13.261719 6.960938 "/>
<path style=" stroke:none;fill-rule:nonzero;fill:rgb(29.803923%,38.431373%,17.254902%);fill-opacity:1;" d="M 19.078125 12.21875 L 9.613281 23.214844 L 6.402344 22.242188 L 6.402344 1.609375 L 9.613281 0.0078125 Z M 19.078125 12.21875 "/>
<path style=" stroke:none;fill-rule:nonzero;fill:rgb(45.882353%,61.176473%,24.705882%);fill-opacity:1;" d="M 20.566406 4.269531 L 20.566406 20.667969 L 9.613281 23.234375 L 9.613281 0 Z M 20.566406 4.269531 "/>
<path style=" stroke:none;fill-rule:nonzero;fill:rgb(29.803923%,38.431373%,17.254902%);fill-opacity:1;" d="M 13.707031 31.03125 L 13.707031 26.214844 L 0 21.359375 L 0 24.171875 Z M 13.707031 31.03125 "/>
<path style=" stroke:none;fill-rule:nonzero;fill:rgb(45.882353%,61.176473%,24.705882%);fill-opacity:1;" d="M 27.425781 21.34375 L 27.425781 24.171875 L 13.707031 31.03125 L 13.707031 26.214844 Z M 27.425781 21.34375 "/>
<path style=" stroke:none;fill-rule:nonzero;fill:rgb(71.764708%,79.215688%,61.56863%);fill-opacity:1;" d="M 13.707031 24.433594 L 23.566406 16.679688 L 20.242188 16.679688 L 10.777344 17.324219 Z M 13.707031 24.433594 "/>
<path style=" stroke:none;fill-rule:nonzero;fill:rgb(29.803923%,38.431373%,17.254902%);fill-opacity:1;" d="M 10.777344 17.324219 L 10.777344 23.550781 L 13.707031 24.433594 L 13.707031 17.636719 Z M 10.777344 17.324219 "/>
<path style=" stroke:none;fill-rule:nonzero;fill:rgb(45.882353%,61.176473%,24.705882%);fill-opacity:1;" d="M 23.566406 21.476562 L 23.566406 16.679688 L 13.703125 17.632812 L 13.703125 24.433594 Z M 23.566406 21.476562 "/>
</g>
</svg>

<svg role="img" viewBox="0 0 28.121 32" xmlns="http://www.w3.org/2000/svg"><path d="m13.707 31.031 13.719-9.687-13.707-2L0 21.359Zm0 0" style="stroke:none;fill-rule:nonzero;fill:rgb(71.764708%,79.215688%,61.56863%);fill-opacity:1"/><path d="M2.738 6.004v15.121l2.325.691 5.449-8.347-5.45-8.36Zm0 0" style="stroke:none;fill-rule:nonzero;fill:rgb(29.803923%,38.431373%,17.254902%);fill-opacity:1"/><path d="M13.262 6.96v13.442L5.07 21.844V5.109Zm0 0" style="stroke:none;fill-rule:nonzero;fill:rgb(45.882353%,61.176473%,24.705882%);fill-opacity:1"/><path d="M19.078 12.219 9.613 23.215l-3.21-.973V1.61L9.612.008Zm0 0" style="stroke:none;fill-rule:nonzero;fill:rgb(29.803923%,38.431373%,17.254902%);fill-opacity:1"/><path d="M20.566 4.27v16.398L9.613 23.234V0Zm0 0" style="stroke:none;fill-rule:nonzero;fill:rgb(45.882353%,61.176473%,24.705882%);fill-opacity:1"/><path d="M13.707 31.031v-4.816L0 21.359v2.813Zm0 0" style="stroke:none;fill-rule:nonzero;fill:rgb(29.803923%,38.431373%,17.254902%);fill-opacity:1"/><path d="M27.426 21.344v2.828l-13.719 6.86v-4.817Zm0 0" style="stroke:none;fill-rule:nonzero;fill:rgb(45.882353%,61.176473%,24.705882%);fill-opacity:1"/><path d="m13.707 24.434 9.86-7.754h-3.325l-9.465.644Zm0 0" style="stroke:none;fill-rule:nonzero;fill:rgb(71.764708%,79.215688%,61.56863%);fill-opacity:1"/><path d="M10.777 17.324v6.227l2.93.883v-6.797Zm0 0" style="stroke:none;fill-rule:nonzero;fill:rgb(29.803923%,38.431373%,17.254902%);fill-opacity:1"/><path d="M23.566 21.477V16.68l-9.863.953v6.8Zm0 0" style="stroke:none;fill-rule:nonzero;fill:rgb(45.882353%,61.176473%,24.705882%);fill-opacity:1"/></svg>
